X:1
T:Golden Willow Tree
M:4/4
L:1/8
K:G
F-G| A2 A2 d2 dd| c2 B2 A2 FG| A3 B c2 d2| c2 B2 A2|F-G| A2 A2 d2 d3/2 d/2|\
 c2 B2 A2 FG| A2 AA B2 AF| ED DD D2| FG| A2 AAA-G E2| D2 D2E-F GG|\
 A2 AB A/2- G3/2 E2| D2 z4||

